Numix/48x48/categories/applications-haskell.svg

<?xml version="1.0" encoding="UTF-8" standalone="no"?>
<svg
   xmlns:dc="http://purl.org/dc/elements/1.1/"
   xmlns:cc="http://creativecommons.org/ns#"
   xmlns:rdf="http://www.w3.org/1999/02/22-rdf-syntax-ns#"
   xmlns:svg="http://www.w3.org/2000/svg"
   xmlns="http://www.w3.org/2000/svg"
   xmlns:sodipodi="http://sodipodi.sourceforge.net/DTD/sodipodi-0.dtd"
   xmlns:inkscape="http://www.inkscape.org/namespaces/inkscape"
   width="48"
   height="48"
   viewBox="0 0 38.4 38.4"
   id="svg2"
   version="1.1"
   inkscape:version="0.91 r"
   sodipodi:docname="applications-haskell.svg">
  <metadata
     id="metadata36">
    <rdf:RDF>
      <cc:Work
         rdf:about="">
        <dc:format>image/svg+xml</dc:format>
        <dc:type
           rdf:resource="http://purl.org/dc/dcmitype/StillImage" />
        <dc:title></dc:title>
      </cc:Work>
    </rdf:RDF>
  </metadata>
  <sodipodi:namedview
     pagecolor="#ffffff"
     bordercolor="#666666"
     borderopacity="1"
     objecttolerance="10"
     gridtolerance="10"
     guidetolerance="10"
     inkscape:pageopacity="0"
     inkscape:pageshadow="2"
     inkscape:window-width="1920"
     inkscape:window-height="1056"
     id="namedview34"
     showgrid="true"
     inkscape:zoom="11.7665"
     inkscape:cx="25.838554"
     inkscape:cy="26.057437"
     inkscape:window-x="0"
     inkscape:window-y="24"
     inkscape:window-maximized="1"
     inkscape:current-layer="svg2">
    <inkscape:grid
       type="xygrid"
       id="grid4164" />
  </sodipodi:namedview>
  <defs
     id="defs4">
    <clipPath
       id="clip2">
      <path
         d="m 11,8.523438 20,0 0,20.953124 -20,0 z"
         id="path7"
         inkscape:connector-curvature="0" />
    </clipPath>
    <clipPath
       id="clip1">
      <path
         d="m 4.15625,8.523438 12.84375,0 0,20.953124 -12.84375,0 z"
         id="path10"
         inkscape:connector-curvature="0" />
    </clipPath>
    <clipPath
       id="clip4">
      <path
         d="m 22,14 11.84375,0 0,5 L 22,19 Z"
         id="path13"
         inkscape:connector-curvature="0" />
    </clipPath>
    <clipPath
       id="clip3">
      <path
         d="m 25,19 8.84375,0 0,5 L 25,24 Z"
         id="path16"
         inkscape:connector-curvature="0" />
    </clipPath>
  </defs>
  <g
     id="g18"
     clip-path="url(#clip1)"
     transform="matrix(0.99269207,0,0,0.99269207,0.33885067,0.33885067)">
    <path
       style="fill:#4fb09e"
       d="M 4.15625,29.476562 11.140625,19 4.15625,8.523438 l 5.238281,0 L 16.378906,19 9.394531,29.476562 Z"
       id="path20"
       inkscape:connector-curvature="0" />
  </g>
  <path
     inkscape:connector-curvature="0"
     id="path24"
     d="m 11.398061,29.6 6.933333,-10.4 -6.933333,-10.4 5.2,0 13.870545,20.8 -5.2,0 L 20.933334,23.10097 16.598061,29.6 Z"
     style="fill:#4fb09e" />
  <path
     sodipodi:nodetypes="ccccc"
     inkscape:connector-curvature="0"
     id="path28"
     d="M 28.4712,23.999993 25.804,20 l 7.796,0 0,4 z"
     style="fill:#4fb09e" />
  <path
     sodipodi:nodetypes="ccccc"
     inkscape:connector-curvature="0"
     id="path32"
     d="m 24.7368,18.4 -2.6664,-4 11.5296,0 0,4 z"
     style="fill:#4fb09e" />
</svg>

<svg width="47.5" xmlns="http://www.w3.org/2000/svg" height="47.5" viewBox="0 0 38 38" xmlns:xlink="http://www.w3.org/1999/xlink">
<defs>
<clipPath id="clip2">
<path d="M 11 8.523438 L 31 8.523438 L 31 29.476562 L 11 29.476562 Z "/>
</clipPath>
<clipPath id="clip1">
<path d="M 4.15625 8.523438 L 17 8.523438 L 17 29.476562 L 4.15625 29.476562 Z "/>
</clipPath>
<clipPath id="clip4">
<path d="M 22 14 L 33.84375 14 L 33.84375 19 L 22 19 Z "/>
</clipPath>
<clipPath id="clip3">
<path d="M 25 19 L 33.84375 19 L 33.84375 24 L 25 24 Z "/>
</clipPath>
</defs>
<g style="clip-path:url(#clip1)">
<path style="fill:#4fb09e" d="M 4.15625 29.476562 L 11.140625 19 L 4.15625 8.523438 L 9.394531 8.523438 L 16.378906 19 L 9.394531 29.476562 Z "/>
</g>
<g style="clip-path:url(#clip2)">
<path style="fill:#4fb09e" d="M 11.140625 29.476562 L 18.125 19 L 11.140625 8.523438 L 16.378906 8.523438 L 30.351562 29.476562 L 25.113281 29.476562 L 20.746094 22.929688 L 16.378906 29.476562 Z "/>
</g>
<g style="clip-path:url(#clip3)">
<path style="fill:#4fb09e" d="M 28.023438 23.367188 L 25.695312 19.875 L 33.84375 19.871094 L 33.84375 23.367188 Z "/>
</g>
<g style="clip-path:url(#clip4)">
<path style="fill:#4fb09e" d="M 24.53125 18.125 L 22.203125 14.632812 L 33.84375 14.632812 L 33.84375 18.125 Z "/>
</g>
</svg>
